X:1
T:Marley, 76.76.76
T:Marley, 76.76.76
T:Ira David Sankey, 1901
T:Public Domain, Courtesy of the Cyber Hymnal™
C:Ira David Sankey, 1901
Z:Public Domain,
Z:Courtesy of the Cyber Hymnal™
%%score ( 1 2 ) ( 3 4 )
L:1/8
Q:1/4=110
M:4/4
K:Eb
V:1 treble 
V:2 treble 
V:3 bass 
V:4 bass 
V:1
 [EG]2 | [EG]3 E [EA]2 [EG]2 | [EG]2 [DF]4 [DA]2 | [DA]3 [DA] [B,D]2 [B,D]2 | [B,E]6 [EB]2 | %5
 [EB]3 [EG] [EB]2 [F=B]2 | [Ec]2 E4 [B,F]2 | [B,G]3 [EG] [B,F]2 [CE]2 | [DB]6 [FB]2 | %9
 [Ee]3 [EB] [EB]2 [EG]2 | [CG]2 [CF]4 [CF]2 | [EG]2 [EA]2 [B,D]3 [B,D] | [B,E]6 |] %13
V:2
 x2 | x3 E x4 | x8 | x8 | x8 | x8 | x2 E4 x2 | x8 | x8 | x8 | x8 | x8 | x6 |] %13
V:3
 [E,B,]2 | [E,B,]3 [E,G,] [E,C]2 [E,B,]2 | [B,,B,]2 [B,,B,]4 [B,,F,]2 | %3
 [B,,F,]3 [B,,F,] [B,,A,]2 [B,,A,]2 | [E,G,]6 [E,G,]2 | [E,G,]3 [E,B,] [E,G,]2 [D,G,]2 | %6
 [C,G,]2 [C,G,]4 [D,F,]2 | E,3 [E,B,] [D,B,]2 [C,=A,]2 | [B,,B,]6 [D,A,]2 | %9
 [E,G,]3 [E,G,] [E,G,]2 [E,B,]2 | [A,,B,]2 [A,,A,]4 [A,,A,]2 | [G,,B,]2 [F,,C]2 [B,,A,]3 [B,,A,] | %12
 [E,G,]6 |] %13
V:4
 x2 | x8 | x8 | x8 | x8 | x8 | x8 | E,3 x5 | x8 | x8 | x8 | x8 | x6 |] %13

